X:1
T:Jingle Bells Bass
T:Jingle Bells Soprano
L:1/8
M:2/4
K:G
V:1 treble nm="Piano" snm="Pno."
V:1
 B B B2 | B B B2 | B d G3/2 A/ | B2 z2 | c c c3/2 c/ | c B B B/ B/ | B A A B | A3 z | B B B2 | %9
 B B B2 | B d G3/2 A/ | B2 z2 | c c c c | c B B B/ B/ | d d c A | G3 z | z2 z D | D B A G | D3 D | %19
 E c B A | E4 | z A B c | d d B A | d4 | z2 z D | D B A G | D4 | z c B A | E c B A | d d d d | %30
 e d c A | G2 d2!D.C.! |] %32

